assets/1. Faces/Drooling face/Color/drooling_face_color.svg

<svg width="100%" height="100%" viewBox="0 0 32 32" fill="none" xmlns="http://www.w3.org/2000/svg">
<g clip-path="url(#clip0_31_84)">
<path d="M15.9989 29.9978C25.3333 29.9978 29.9978 23.7303 29.9978 15.9989C29.9978 8.26751 25.3333 2 15.9989 2C6.66443 2 2 8.26751 2 15.9989C2 23.7303 6.66443 29.9978 15.9989 29.9978Z" fill="url(#paint0_radial_31_84)"/>
<path d="M15.9989 29.9978C25.3333 29.9978 29.9978 23.7303 29.9978 15.9989C29.9978 8.26751 25.3333 2 15.9989 2C6.66443 2 2 8.26751 2 15.9989C2 23.7303 6.66443 29.9978 15.9989 29.9978Z" fill="url(#paint1_radial_31_84)"/>
<path d="M15.9989 29.9978C25.3333 29.9978 29.9978 23.7303 29.9978 15.9989C29.9978 8.26751 25.3333 2 15.9989 2C6.66443 2 2 8.26751 2 15.9989C2 23.7303 6.66443 29.9978 15.9989 29.9978Z" fill="url(#paint2_radial_31_84)"/>
<path d="M15.9989 29.9978C25.3333 29.9978 29.9978 23.7303 29.9978 15.9989C29.9978 8.26751 25.3333 2 15.9989 2C6.66443 2 2 8.26751 2 15.9989C2 23.7303 6.66443 29.9978 15.9989 29.9978Z" fill="url(#paint3_radial_31_84)" fill-opacity="0.6"/>
<path d="M15.9989 29.9978C25.3333 29.9978 29.9978 23.7303 29.9978 15.9989C29.9978 8.26751 25.3333 2 15.9989 2C6.66443 2 2 8.26751 2 15.9989C2 23.7303 6.66443 29.9978 15.9989 29.9978Z" fill="url(#paint4_radial_31_84)"/>
<path d="M15.9989 29.9978C25.3333 29.9978 29.9978 23.7303 29.9978 15.9989C29.9978 8.26751 25.3333 2 15.9989 2C6.66443 2 2 8.26751 2 15.9989C2 23.7303 6.66443 29.9978 15.9989 29.9978Z" fill="url(#paint5_radial_31_84)"/>
<path d="M15.9989 29.9978C25.3333 29.9978 29.9978 23.7303 29.9978 15.9989C29.9978 8.26751 25.3333 2 15.9989 2C6.66443 2 2 8.26751 2 15.9989C2 23.7303 6.66443 29.9978 15.9989 29.9978Z" fill="url(#paint6_radial_31_84)"/>
<path d="M15.9989 29.9978C25.3333 29.9978 29.9978 23.7303 29.9978 15.9989C29.9978 8.26751 25.3333 2 15.9989 2C6.66443 2 2 8.26751 2 15.9989C2 23.7303 6.66443 29.9978 15.9989 29.9978Z" fill="url(#paint7_radial_31_84)"/>
<g opacity="0.5" filter="url(#filter0_f_31_84)">
<path d="M7.5 13.5C7.5 13.5 7.75 11.5 10 11.5C12.25 11.5 12.5 13.5 12.5 13.5" stroke="#9A4609" stroke-width="2" stroke-linecap="round"/>
</g>
<g opacity="0.5" filter="url(#filter1_f_31_84)">
<path d="M18.5 13.5C18.5 13.5 19 11.5 21 11.5C23 11.5 23.5 13.5 23.5 13.5" stroke="#9A4609" stroke-width="2" stroke-linecap="round"/>
</g>
<path d="M8 13C8 13 8.25 11 10.5 11C12.75 11 13 13 13 13" stroke="#43273B" stroke-width="2" stroke-linecap="round" stroke-linejoin="round"/>
<g opacity="0.26" filter="url(#filter2_f_31_84)">
<path d="M8.25 12.75C8.25 12.75 8.5 10.75 10.75 10.75C13 10.75 13.25 12.75 13.25 12.75" stroke="white" stroke-width="0.75" stroke-linecap="round" stroke-linejoin="round"/>
</g>
<path d="M19 13C19 13 19.5 11 21.5 11C23.5 11 24 13 24 13" stroke="#43273B" stroke-width="2" stroke-linecap="round" stroke-linejoin="round"/>
<g opacity="0.26" filter="url(#filter3_f_31_84)">
<path d="M19.25 12.75C19.25 12.75 19.5 10.75 21.75 10.75C24 10.75 24.25 12.75 24.25 12.75" stroke="white" stroke-width="0.75" stroke-linecap="round" stroke-linejoin="round"/>
</g>
<path d="M6.5 10.5C6.83333 9.5 8.1 7.5 10.5 7.5" stroke="url(#paint8_linear_31_84)" stroke-linecap="round" stroke-linejoin="round"/>
<path d="M25.5 10.5C25.1667 9.5 23.9 7.5 21.5 7.5" stroke="url(#paint9_linear_31_84)" stroke-linecap="round" stroke-linejoin="round"/>
<path d="M11.62 21.5H18.1L19.72 24.4028V31.1074L11.6199 29L11.62 21.5Z" fill="url(#paint10_radial_31_84)"/>
<path d="M16 25C9 25 9 18 9 18H23C23 18 23 25 16 25Z" fill="url(#paint11_radial_31_84)"/>
<path fill-rule="evenodd" clip-rule="evenodd" d="M10.1505 22C11.1004 23.5684 12.8344 25 16 25C19.1657 25 20.8997 23.5684 21.8496 22H10.1505Z" fill="url(#paint12_linear_31_84)"/>
<path fill-rule="evenodd" clip-rule="evenodd" d="M10.1505 22C11.1004 23.5684 12.8344 25 16 25C19.1657 25 20.8997 23.5684 21.8496 22H10.1505Z" fill="url(#paint13_radial_31_84)"/>
<path fill-rule="evenodd" clip-rule="evenodd" d="M16 23.5V25.25C16 25.6642 16.3358 26 16.75 26H16.8333C17.2015 26 17.5 26.2985 17.5 26.6667V26.75C17.5 27.4404 18.0596 28 18.75 28C19.4404 28 20 27.4404 20 26.75V23.9372C20.8204 23.4017 21.4165 22.7151 21.8496 22H20H19H17.5C16.6716 22 16 22.6716 16 23.5Z" fill="url(#paint14_radial_31_84)"/>
</g>
<defs>
<filter id="filter0_f_31_84" x="4.99988" y="9" width="10.0002" height="7.00012" filterUnits="userSpaceOnUse" color-interpolation-filters="sRGB">
<feFlood flood-opacity="0" result="BackgroundImageFix"/>
<feBlend mode="normal" in="SourceGraphic" in2="BackgroundImageFix" result="shape"/>
<feGaussianBlur stdDeviation="0.75" result="effect1_foregroundBlur_31_84"/>
</filter>
<filter id="filter1_f_31_84" x="15.9998" y="9" width="10.0005" height="7.00024" filterUnits="userSpaceOnUse" color-interpolation-filters="sRGB">
<feFlood flood-opacity="0" result="BackgroundImageFix"/>
<feBlend mode="normal" in="SourceGraphic" in2="BackgroundImageFix" result="shape"/>
<feGaussianBlur stdDeviation="0.75" result="effect1_foregroundBlur_31_84"/>
</filter>
<filter id="filter2_f_31_84" x="6.375" y="8.875" width="8.75" height="5.75006" filterUnits="userSpaceOnUse" color-interpolation-filters="sRGB">
<feFlood flood-opacity="0" result="BackgroundImageFix"/>
<feBlend mode="normal" in="SourceGraphic" in2="BackgroundImageFix" result="shape"/>
<feGaussianBlur stdDeviation="0.75" result="effect1_foregroundBlur_31_84"/>
</filter>
<filter id="filter3_f_31_84" x="17.375" y="8.875" width="8.75" height="5.75006" filterUnits="userSpaceOnUse" color-interpolation-filters="sRGB">
<feFlood flood-opacity="0" result="BackgroundImageFix"/>
<feBlend mode="normal" in="SourceGraphic" in2="BackgroundImageFix" result="shape"/>
<feGaussianBlur stdDeviation="0.75" result="effect1_foregroundBlur_31_84"/>
</filter>
<radialGradient id="paint0_radial_31_84" cx="0" cy="0" r="1" gradientUnits="userSpaceOnUse" gradientTransform="translate(25.5 9) rotate(132.839) scale(37.5033)">
<stop stop-color="#FFF478"/>
<stop offset="0.474827" stop-color="#FFB02E"/>
<stop offset="1" stop-color="#F70A8D"/>
</radialGradient>
<radialGradient id="paint1_radial_31_84" cx="0" cy="0" r="1" gradientUnits="userSpaceOnUse" gradientTransform="translate(25.5 9) rotate(131.878) scale(38.9487)">
<stop stop-color="#FFF478"/>
<stop offset="0.474827" stop-color="#FFB02E"/>
<stop offset="1" stop-color="#F70A8D"/>
</radialGradient>
<radialGradient id="paint2_radial_31_84" cx="0" cy="0" r="1" gradientUnits="userSpaceOnUse" gradientTransform="translate(16 12.5) rotate(101.31) scale(17.8466 22.8581)">
<stop offset="0.787821" stop-color="#F59639" stop-opacity="0"/>
<stop offset="0.972509" stop-color="#FF7DCE"/>
</radialGradient>
<radialGradient id="paint3_radial_31_84" cx="0" cy="0" r="1" gradientUnits="userSpaceOnUse" gradientTransform="translate(18 14) rotate(135) scale(41.0122)">
<stop offset="0.314853" stop-opacity="0"/>
<stop offset="1"/>
</radialGradient>
<radialGradient id="paint4_radial_31_84" cx="0" cy="0" r="1" gradientUnits="userSpaceOnUse" gradientTransform="translate(16 17) rotate(77.692) scale(28.1469)">
<stop offset="0.507903" stop-color="#7D6133" stop-opacity="0"/>
<stop offset="1" stop-color="#715B32"/>
</radialGradient>
<radialGradient id="paint5_radial_31_84" cx="0" cy="0" r="1" gradientUnits="userSpaceOnUse" gradientTransform="translate(16.5 16.5) rotate(55.7131) scale(13.3135 9.65032)">
<stop stop-color="#FFB849"/>
<stop offset="1" stop-color="#FFB847" stop-opacity="0"/>
</radialGradient>
<radialGradient id="paint6_radial_31_84" cx="0" cy="0" r="1" gradientUnits="userSpaceOnUse" gradientTransform="translate(20.5 18) rotate(9.86581) scale(11.6726)">
<stop stop-color="#FFA64B"/>
<stop offset="0.900412" stop-color="#FFAE46" stop-opacity="0"/>
</radialGradient>
<radialGradient id="paint7_radial_31_84" cx="0" cy="0" r="1" gradientUnits="userSpaceOnUse" gradientTransform="translate(17.5 15) rotate(43.9708) scale(59.0529)">
<stop offset="0.185425" stop-opacity="0"/>
<stop offset="1" stop-opacity="0.4"/>
</radialGradient>
<linearGradient id="paint8_linear_31_84" x1="6.83333" y1="11.4" x2="6.83333" y2="9.6" gradientUnits="userSpaceOnUse">
<stop offset="0.0299084" stop-color="#524049"/>
<stop offset="1" stop-color="#4A2C42"/>
</linearGradient>
<linearGradient id="paint9_linear_31_84" x1="25.1667" y1="11.4" x2="25.1667" y2="9.6" gradientUnits="userSpaceOnUse">
<stop offset="0.0299084" stop-color="#524049"/>
<stop offset="1" stop-color="#4A2C42"/>
</linearGradient>
<radialGradient id="paint10_radial_31_84" cx="0" cy="0" r="1" gradientUnits="userSpaceOnUse" gradientTransform="translate(19.72 21.5) rotate(128.191) scale(7.63403 5.15729)">
<stop stop-color="#C20AA5"/>
<stop offset="1" stop-color="#C20A78" stop-opacity="0"/>
</radialGradient>
<radialGradient id="paint11_radial_31_84" cx="0" cy="0" r="1" gradientUnits="userSpaceOnUse" gradientTransform="translate(16 25.5) rotate(-90) scale(7.5 15)">
<stop stop-color="#F70A8D"/>
<stop offset="1" stop-color="#89029C"/>
</radialGradient>
<linearGradient id="paint12_linear_31_84" x1="16" y1="22" x2="16" y2="25" gradientUnits="userSpaceOnUse">
<stop stop-color="#2962F3"/>
<stop offset="0.160122" stop-color="#3E7AFF"/>
<stop offset="0.253876" stop-color="#4588FF"/>
<stop offset="0.535137" stop-color="#4170FF"/>
<stop offset="1" stop-color="#3E69FF"/>
</linearGradient>
<radialGradient id="paint13_radial_31_84" cx="0" cy="0" r="1" gradientUnits="userSpaceOnUse" gradientTransform="translate(16 23.5) rotate(90) scale(3 1.74841)">
<stop stop-color="#323FFF"/>
<stop offset="1" stop-color="#323FFF" stop-opacity="0"/>
</radialGradient>
<radialGradient id="paint14_radial_31_84" cx="0" cy="0" r="1" gradientUnits="userSpaceOnUse" gradientTransform="translate(23.5 26) rotate(-172.405) scale(7.56637 7.8168)">
<stop offset="0.408311" stop-color="#325CFF"/>
<stop offset="0.574014" stop-color="#4889FF"/>
<stop offset="0.739718" stop-color="#3C6BF7"/>
<stop offset="0.899655" stop-color="#3F72FF"/>
<stop offset="1" stop-color="#3156FE"/>
</radialGradient>
<clipPath id="clip0_31_84">
<rect width="32" height="32" fill="white"/>
</clipPath>
</defs>
</svg>

<svg width="100%" height="100%" viewBox="0 0 32 32" xmlns="http://www.w3.org/2000/svg"><g clip-path="url(#a)"><path fill="url(#b)" d="M15.999 29.998c9.334 0 13.999-6.268 13.999-14 0-7.73-4.665-13.998-14-13.998C6.665 2 2 8.268 2 15.999s4.664 13.999 13.999 13.999"/><path fill="url(#c)" d="M15.999 29.998c9.334 0 13.999-6.268 13.999-14 0-7.73-4.665-13.998-14-13.998C6.665 2 2 8.268 2 15.999s4.664 13.999 13.999 13.999"/><path fill="url(#d)" d="M15.999 29.998c9.334 0 13.999-6.268 13.999-14 0-7.73-4.665-13.998-14-13.998C6.665 2 2 8.268 2 15.999s4.664 13.999 13.999 13.999"/><path fill="url(#e)" fill-opacity=".6" d="M15.999 29.998c9.334 0 13.999-6.268 13.999-14 0-7.73-4.665-13.998-14-13.998C6.665 2 2 8.268 2 15.999s4.664 13.999 13.999 13.999"/><path fill="url(#f)" d="M15.999 29.998c9.334 0 13.999-6.268 13.999-14 0-7.73-4.665-13.998-14-13.998C6.665 2 2 8.268 2 15.999s4.664 13.999 13.999 13.999"/><path fill="url(#g)" d="M15.999 29.998c9.334 0 13.999-6.268 13.999-14 0-7.73-4.665-13.998-14-13.998C6.665 2 2 8.268 2 15.999s4.664 13.999 13.999 13.999"/><path fill="url(#h)" d="M15.999 29.998c9.334 0 13.999-6.268 13.999-14 0-7.73-4.665-13.998-14-13.998C6.665 2 2 8.268 2 15.999s4.664 13.999 13.999 13.999"/><path fill="url(#i)" d="M15.999 29.998c9.334 0 13.999-6.268 13.999-14 0-7.73-4.665-13.998-14-13.998C6.665 2 2 8.268 2 15.999s4.664 13.999 13.999 13.999"/><g filter="url(#j)" opacity=".5"><path stroke="#9A4609" stroke-linecap="round" stroke-width="2" d="M7.5 13.5s.25-2 2.5-2 2.5 2 2.5 2"/></g><g filter="url(#k)" opacity=".5"><path stroke="#9A4609" stroke-linecap="round" stroke-width="2" d="M18.5 13.5s.5-2 2.5-2 2.5 2 2.5 2"/></g><path stroke="#43273B" stroke-linecap="round" stroke-linejoin="round" stroke-width="2" d="M8 13s.25-2 2.5-2 2.5 2 2.5 2"/><g filter="url(#l)" opacity=".26"><path stroke="#fff" stroke-linecap="round" stroke-linejoin="round" stroke-width=".75" d="M8.25 12.75s.25-2 2.5-2 2.5 2 2.5 2"/></g><path stroke="#43273B" stroke-linecap="round" stroke-linejoin="round" stroke-width="2" d="M19 13s.5-2 2.5-2 2.5 2 2.5 2"/><g filter="url(#m)" opacity=".26"><path stroke="#fff" stroke-linecap="round" stroke-linejoin="round" stroke-width=".75" d="M19.25 12.75s.25-2 2.5-2 2.5 2 2.5 2"/></g><path stroke="url(#n)" stroke-linecap="round" stroke-linejoin="round" d="M6.5 10.5c.333-1 1.6-3 4-3"/><path stroke="url(#o)" stroke-linecap="round" stroke-linejoin="round" d="M25.5 10.5c-.333-1-1.6-3-4-3"/><path fill="url(#p)" d="M11.62 21.5h6.48l1.62 2.903v6.704L11.62 29z"/><path fill="url(#q)" d="M16 25c-7 0-7-7-7-7h14s0 7-7 7"/><path fill="url(#r)" fill-rule="evenodd" d="M10.15 22c.95 1.568 2.684 3 5.85 3s4.9-1.432 5.85-3z" clip-rule="evenodd"/><path fill="url(#s)" fill-rule="evenodd" d="M10.15 22c.95 1.568 2.684 3 5.85 3s4.9-1.432 5.85-3z" clip-rule="evenodd"/><path fill="url(#t)" fill-rule="evenodd" d="M16 23.5v1.75c0 .414.336.75.75.75h.083c.369 0 .667.299.667.667v.083a1.25 1.25 0 1 0 2.5 0v-2.813A6 6 0 0 0 21.85 22H17.5a1.5 1.5 0 0 0-1.5 1.5" clip-rule="evenodd"/></g><defs><radialGradient id="b" cx="0" cy="0" r="1" gradientTransform="rotate(132.839 10.786 10.065)scale(37.5033)" gradientUnits="userSpaceOnUse"><stop stop-color="#FFF478"/><stop offset=".475" stop-color="#FFB02E"/><stop offset="1" stop-color="#F70A8D"/></radialGradient><radialGradient id="c" cx="0" cy="0" r="1" gradientTransform="rotate(131.878 10.74 10.193)scale(38.9487)" gradientUnits="userSpaceOnUse"><stop stop-color="#FFF478"/><stop offset=".475" stop-color="#FFB02E"/><stop offset="1" stop-color="#F70A8D"/></radialGradient><radialGradient id="d" cx="0" cy="0" r="1" gradientTransform="rotate(101.31 2.876 12.808)scale(17.8466 22.8581)" gradientUnits="userSpaceOnUse"><stop offset=".788" stop-color="#F59639" stop-opacity="0"/><stop offset=".973" stop-color="#FF7DCE"/></radialGradient><radialGradient id="e" cx="0" cy="0" r="1" gradientTransform="matrix(-29 29 -29 -29 18 14)" gradientUnits="userSpaceOnUse"><stop offset=".315" stop-opacity="0"/><stop offset="1"/></radialGradient><radialGradient id="f" cx="0" cy="0" r="1" gradientTransform="rotate(77.692 -2.555 18.434)scale(28.1469)" gradientUnits="userSpaceOnUse"><stop offset=".508" stop-color="#7D6133" stop-opacity="0"/><stop offset="1" stop-color="#715B32"/></radialGradient><radialGradient id="g" cx="0" cy="0" r="1" gradientTransform="rotate(55.713 -7.36 23.86)scale(13.3135 9.65032)" gradientUnits="userSpaceOnUse"><stop stop-color="#FFB849"/><stop offset="1" stop-color="#FFB847" stop-opacity="0"/></radialGradient><radialGradient id="h" cx="0" cy="0" r="1" gradientTransform="matrix(11.49998 2 -2 11.49998 20.5 18)" gradientUnits="userSpaceOnUse"><stop stop-color="#FFA64B"/><stop offset=".9" stop-color="#FFAE46" stop-opacity="0"/></radialGradient><radialGradient id="i" cx="0" cy="0" r="1" gradientTransform="rotate(43.971 -9.827 29.173)scale(59.0529)" gradientUnits="userSpaceOnUse"><stop offset=".185" stop-opacity="0"/><stop offset="1" stop-opacity=".4"/></radialGradient><radialGradient id="p" cx="0" cy="0" r="1" gradientTransform="matrix(-4.72 6 -4.0534 -3.18867 19.72 21.5)" gradientUnits="userSpaceOnUse"><stop stop-color="#C20AA5"/><stop offset="1" stop-color="#C20A78" stop-opacity="0"/></radialGradient><radialGradient id="q" cx="0" cy="0" r="1" gradientTransform="matrix(0 -7.5 15 0 16 25.5)" gradientUnits="userSpaceOnUse"><stop stop-color="#F70A8D"/><stop offset="1" stop-color="#89029C"/></radialGradient><radialGradient id="s" cx="0" cy="0" r="1" gradientTransform="matrix(0 3 -1.74841 0 16 23.5)" gradientUnits="userSpaceOnUse"><stop stop-color="#323FFF"/><stop offset="1" stop-color="#323FFF" stop-opacity="0"/></radialGradient><radialGradient id="t" cx="0" cy="0" r="1" gradientTransform="matrix(-7.5 -1.00005 1.03315 -7.74822 23.5 26)" gradientUnits="userSpaceOnUse"><stop offset=".408" stop-color="#325CFF"/><stop offset=".574" stop-color="#4889FF"/><stop offset=".74" stop-color="#3C6BF7"/><stop offset=".9" stop-color="#3F72FF"/><stop offset="1" stop-color="#3156FE"/></radialGradient><filter id="j" width="10" height="7" x="5" y="9" color-interpolation-filters="sRGB" filterUnits="userSpaceOnUse"><feFlood flood-opacity="0" result="BackgroundImageFix"/><feBlend in="SourceGraphic" in2="BackgroundImageFix" result="shape"/><feGaussianBlur result="effect1_foregroundBlur_31_84" stdDeviation=".75"/></filter><filter id="k" width="10.001" height="7" x="16" y="9" color-interpolation-filters="sRGB" filterUnits="userSpaceOnUse"><feFlood flood-opacity="0" result="BackgroundImageFix"/><feBlend in="SourceGraphic" in2="BackgroundImageFix" result="shape"/><feGaussianBlur result="effect1_foregroundBlur_31_84" stdDeviation=".75"/></filter><filter id="l" width="8.75" height="5.75" x="6.375" y="8.875" color-interpolation-filters="sRGB" filterUnits="userSpaceOnUse"><feFlood flood-opacity="0" result="BackgroundImageFix"/><feBlend in="SourceGraphic" in2="BackgroundImageFix" result="shape"/><feGaussianBlur result="effect1_foregroundBlur_31_84" stdDeviation=".75"/></filter><filter id="m" width="8.75" height="5.75" x="17.375" y="8.875" color-interpolation-filters="sRGB" filterUnits="userSpaceOnUse"><feFlood flood-opacity="0" result="BackgroundImageFix"/><feBlend in="SourceGraphic" in2="BackgroundImageFix" result="shape"/><feGaussianBlur result="effect1_foregroundBlur_31_84" stdDeviation=".75"/></filter><linearGradient id="n" x1="6.833" x2="6.833" y1="11.4" y2="9.6" gradientUnits="userSpaceOnUse"><stop offset=".03" stop-color="#524049"/><stop offset="1" stop-color="#4A2C42"/></linearGradient><linearGradient id="o" x1="25.167" x2="25.167" y1="11.4" y2="9.6" gradientUnits="userSpaceOnUse"><stop offset=".03" stop-color="#524049"/><stop offset="1" stop-color="#4A2C42"/></linearGradient><linearGradient id="r" x1="16" x2="16" y1="22" y2="25" gradientUnits="userSpaceOnUse"><stop stop-color="#2962F3"/><stop offset=".16" stop-color="#3E7AFF"/><stop offset=".254" stop-color="#4588FF"/><stop offset=".535" stop-color="#4170FF"/><stop offset="1" stop-color="#3E69FF"/></linearGradient><clipPath id="a"><path fill="#fff" d="M0 0h32v32H0z"/></clipPath></defs></svg>
